packages/kaspersky-hexa-ui-icons/src/iconsSVGs/24/Analytics.svg

<svg width="24" height="24" viewBox="0 0 24 24" fill="none" xmlns="http://www.w3.org/2000/svg">
<path fill-rule="evenodd" clip-rule="evenodd" d="M19.2304 8.99128C20.7796 8.87361 22 7.57932 22 6C22 4.34315 20.6569 3 19 3C17.3431 3 16 4.34315 16 6C16 7.02357 16.5126 7.92742 17.2951 8.46882L16.0802 12.0011C16.0536 12.0004 16.0268 12 16 12C15.3684 12 14.7824 12.1952 14.299 12.5285L10.8351 9.9835C10.9419 9.6754 11 9.34448 11 9C11 7.34315 9.65685 6 8 6C6.34315 6 5 7.34315 5 9C5 9.96452 5.45517 10.8227 6.16243 11.3715L4.80382 15.0063C3.23841 15.1074 2 16.4091 2 18C2 19.6569 3.34315 21 5 21C6.65685 21 8 19.6569 8 18C8 16.9896 7.50048 16.0958 6.73491 15.5522L8.0629 11.9994C8.62126 11.9879 9.14214 11.8238 9.58556 11.5472L13.1232 14.1464C13.043 14.4169 13 14.7034 13 15C13 16.6569 14.3431 18 16 18C17.6569 18 19 16.6569 19 15C19 14.0868 18.592 13.269 17.9484 12.7187L19.2304 8.99128ZM19 7C19.5523 7 20 6.55228 20 6C20 5.44772 19.5523 5 19 5C18.4477 5 18 5.44772 18 6C18 6.55228 18.4477 7 19 7ZM5 17C4.44772 17 4 17.4477 4 18C4 18.5523 4.44772 19 5 19C5.55228 19 6 18.5523 6 18C6 17.4477 5.55228 17 5 17ZM7 9C7 8.44772 7.44772 8 8 8C8.55228 8 9 8.44772 9 9C9 9.55228 8.55228 10 8 10C7.44772 10 7 9.55228 7 9ZM16 16C16.5523 16 17 15.5523 17 15C17 14.4477 16.5523 14 16 14C15.4477 14 15 14.4477 15 15C15 15.5523 15.4477 16 16 16Z" fill="black"/>
</svg>

<svg xmlns="http://www.w3.org/2000/svg" width="24" height="24" fill="none" viewBox="0 0 24 24"><path fill="#000" fill-rule="evenodd" d="M19.2304 8.9913C20.7796 8.8736 22 7.5793 22 6c0-1.6569-1.3431-3-3-3s-3 1.3431-3 3c0 1.0236.5126 1.9274 1.2951 2.4688l-1.2149 3.5323a2.986 2.986 0 0 0-1.7812.5274l-3.4639-2.545A3 3 0 0 0 11 9c0-1.6569-1.3431-3-3-3S5 7.3431 5 9c0 .9645.4552 1.8227 1.1624 2.3715l-1.3586 3.6348C3.2384 15.1074 2 16.4091 2 18c0 1.6569 1.3432 3 3 3s3-1.3431 3-3c0-1.0104-.4995-1.9042-1.265-2.4478l1.3279-3.5528a2.985 2.985 0 0 0 1.5227-.4522l3.5376 2.5992A3 3 0 0 0 13 15c0 1.6569 1.3431 3 3 3s3-1.3431 3-3c0-.9132-.408-1.731-1.0516-2.2813zM19 7c.5523 0 1-.4477 1-1s-.4477-1-1-1-1 .4477-1 1 .4477 1 1 1M5 17c-.5523 0-1 .4477-1 1s.4477 1 1 1 1-.4477 1-1-.4477-1-1-1m2-8c0-.5523.4477-1 1-1s1 .4477 1 1-.4477 1-1 1-1-.4477-1-1m9 7c.5523 0 1-.4477 1-1s-.4477-1-1-1-1 .4477-1 1 .4477 1 1 1"/></svg>
